source/img/logo-mobile.svg

<svg width="86" height="35" viewBox="0 0 86 35" fill="none" xmlns="http://www.w3.org/2000/svg">
<path d="M4.54885 26.3799C4.54885 22.8718 4.24875 19.4638 4.14872 15.9557C4.14872 15.655 4.14872 15.254 4.14872 14.9533C4.14872 15.0536 4.24875 15.1538 4.24875 15.3543C4.74892 16.7575 5.34912 18.0606 6.04935 19.2634C6.74959 20.4662 7.14972 21.8694 7.54985 23.1725C7.34979 23.3729 7.24976 23.5734 7.34979 23.7739C7.34979 23.9743 7.44982 23.9743 7.54985 24.0746C8.05002 24.5757 9.05036 24.275 9.65056 24.0746C9.85063 23.9743 10.1507 23.8741 10.3508 23.6736C10.6509 23.4732 11.051 23.0722 10.951 22.6713C10.951 22.5711 10.951 22.4708 10.851 22.4708C11.2511 21.3683 11.4512 20.2657 11.6512 19.1631C11.8513 17.9603 12.3515 16.8578 12.7516 15.655C12.7516 16.1561 12.8516 16.6573 12.8516 17.2587C13.0517 19.3636 12.8516 21.5687 12.8516 23.6736C12.8516 24.3753 12.8516 25.0769 13.0517 25.7785C13.1517 26.0792 13.3518 27.282 13.2518 27.3823C12.7516 27.8834 12.8516 28.4848 13.5519 28.5851C14.3521 28.7855 15.3525 28.4848 15.8526 27.9837C16.853 27.0816 16.3528 25.5781 16.1527 24.3753C15.7526 22.3706 16.2528 20.1655 16.1527 18.1608C16.0527 15.8554 15.7526 13.6503 15.7526 11.345C15.7526 9.54076 16.0527 7.63632 15.4525 5.83213C15.4525 5.63166 15.5525 5.43119 15.5525 5.23073C15.7526 4.32863 12.7516 4.82979 12.3515 5.63166C12.0514 5.83213 11.9513 6.13283 12.0514 6.43353C12.0514 6.53376 12.1514 6.53376 12.1514 6.63399C11.5512 9.34029 10.851 11.9464 9.95066 14.5524C9.65056 15.5547 9.25043 16.5571 8.85029 17.5594C8.35012 16.6573 7.84996 15.655 7.44982 14.7529C6.24942 11.8461 5.24909 8.93936 3.84862 6.13283C4.04868 4.82979 1.14771 4.93003 0.547507 6.13283C-0.152727 7.53609 -0.0526913 9.03959 0.147376 10.5431C0.447476 12.2471 0.447475 13.951 0.447475 15.655C0.447475 18.9627 0.747578 22.3706 0.847611 25.6783C0.547511 25.979 0.447475 26.3799 0.747575 26.8811C0.847609 27.0816 1.04768 27.1818 1.24774 27.3823C2.44814 28.0839 4.54885 27.5827 4.54885 26.3799Z" fill="black"/>
<path d="M22.7549 7.93703C22.6549 7.33563 19.3538 8.03726 19.4538 8.83912C19.7539 10.6433 19.6539 12.4475 19.5539 14.2517C19.5539 15.9557 19.954 17.5594 20.1541 19.2634C20.3541 20.9673 20.054 22.7715 20.2541 24.4755C20.3541 25.2774 20.8543 26.7809 20.3541 27.4825C19.954 27.8834 21.5545 27.7832 21.6546 27.7832C22.2548 27.683 23.1551 27.4825 23.5552 26.8811C24.1554 26.1795 23.7553 24.8764 23.5552 24.0746C23.2551 22.3706 23.4552 20.5664 23.3552 18.7622C23.2551 17.0583 22.7549 15.4545 22.6549 13.8508C22.955 11.8461 23.055 9.94169 22.7549 7.93703Z" fill="black"/>
<path d="M25.956 14.6527C26.8563 17.1585 30.5576 15.9557 32.5582 16.1562C35.7593 16.3566 34.859 20.7669 34.859 22.7715C34.859 23.8741 35.8593 25.6783 35.0591 26.5804C34.5589 27.1818 33.3585 27.1818 32.6583 27.1818C31.958 27.282 30.7576 27.4825 30.3575 26.7809C29.5572 25.5781 30.4575 23.5734 30.2575 22.1701C30.1574 21.3683 26.8563 22.0699 26.9564 23.0722C27.2565 25.2774 25.7559 28.2844 28.957 28.6853C31.0577 28.8858 33.3585 28.5851 35.2591 27.8834C36.2595 27.5827 37.1598 27.0816 37.96 26.3799C38.8603 25.5781 38.5602 24.3753 38.3602 23.3729C37.76 20.8671 38.9604 18.0606 37.3598 15.8555C35.6593 13.5501 32.3582 15.1538 30.1574 14.5524C28.957 14.352 28.957 12.7482 28.957 11.7459C28.957 10.5431 28.857 9.44052 28.757 8.23773C28.6569 7.33563 28.757 6.43353 29.3572 5.83213C29.4572 5.7319 30.0574 5.53143 30.0574 5.53143C30.3575 5.4312 30.6576 5.4312 30.9577 5.4312C32.2581 5.33096 34.859 5.63166 34.3588 7.53609C34.1588 8.43819 37.3598 7.93703 37.6599 7.03493C38.6603 3.12583 31.5579 3.9277 29.4572 4.42886C27.5566 4.93003 25.5559 6.03259 25.4558 8.13749C25.3558 9.13982 25.6559 10.1422 25.7559 11.1445C25.7559 12.3473 25.4558 13.5501 25.956 14.6527Z" fill="black"/>
<path d="M40.3609 16.5571C40.2608 18.3613 40.1608 20.1655 40.1608 21.9697C40.1608 22.8718 40.2608 23.7739 40.4609 24.7762C40.5609 25.5781 40.861 26.7809 40.6609 27.5827C40.4609 28.1841 43.662 27.7832 43.9621 26.9813C44.4622 25.4778 43.762 23.5734 43.662 22.0699C43.5619 20.5664 43.662 19.1631 43.762 17.6597C45.4626 17.5594 47.1631 17.4592 48.8637 17.6597C48.9637 18.8624 49.0638 19.965 49.1638 21.1678C49.2638 22.1701 49.3639 23.0722 49.3639 24.0746C49.3639 24.9767 49.4639 26.1795 49.1638 26.9813C48.4636 28.6853 51.8647 28.5851 52.2648 27.282C52.865 25.6783 52.665 23.7739 52.5649 22.0699C52.2648 19.8648 51.9647 17.8601 51.9647 15.7552C51.8647 12.5478 51.3645 9.44053 51.3645 6.23306C51.3645 4.5291 48.0634 5.1305 48.0634 6.53376C48.0634 9.54076 48.4636 12.5478 48.6636 15.655C48.6636 15.7552 48.6636 15.7552 48.6636 15.8555C47.0631 15.8555 45.3625 15.9557 43.762 16.0559C43.9621 12.1468 43.2618 8.23773 43.3619 4.32863C43.3619 3.82747 40.0607 4.2284 40.0607 5.23073C39.8607 9.03959 40.4609 12.7482 40.3609 16.5571Z" fill="black"/>
<path d="M54.4656 21.8694C54.1655 22.1701 54.2655 22.2704 54.4656 22.3706C54.4656 23.8741 54.4656 25.2774 54.2655 26.7809C53.8654 27.3823 54.6656 27.7832 55.1658 27.7832H55.2658C55.866 27.7832 57.4666 27.4825 57.5666 26.6806C57.7667 24.8764 57.7667 23.1725 57.7667 21.3683C59.0671 19.965 60.1675 18.261 61.1678 16.6573C61.768 17.8601 62.3682 19.1631 62.8684 20.5664C63.5686 22.8718 64.769 24.9767 65.4693 27.3823C65.9694 28.8858 69.2705 27.9837 68.7704 26.4802C68.0701 24.1748 66.8697 21.9697 66.1695 19.6643C65.3692 17.3589 64.1688 15.2541 63.1685 13.0489C63.9688 11.4452 64.8691 9.74123 65.6693 8.03726C66.3696 6.53376 66.8697 4.8298 68.2702 3.72723C68.7704 3.3263 68.7704 2.92537 68.0701 2.92537C67.3699 2.82513 66.3696 3.12583 65.7694 3.52677C64.4689 4.5291 63.7687 5.73189 63.0685 7.13516C62.2682 8.83912 61.4679 10.5431 60.5676 12.2471C60.4676 12.3473 60.4676 12.4475 60.3676 12.648C59.9674 12.9487 59.6673 13.2494 59.8674 13.7506C59.1672 15.0536 58.567 16.3566 57.7667 17.6596C57.4666 12.9487 56.9664 8.33796 56.7663 3.627C56.7663 2.52443 53.4652 3.22607 53.4652 4.5291C53.6653 10.2424 54.4656 16.0559 54.4656 21.8694Z" fill="black"/>
<path d="M85.9761 15.655C85.7761 14.9534 84.7757 14.9534 84.0755 15.0536C84.0755 14.7529 84.0755 14.4522 84.0755 14.2517C83.9754 12.0466 83.9755 9.74122 83.7754 7.43586C83.5753 5.33096 82.4749 4.62933 80.4743 4.72956C78.4736 4.82979 76.0728 5.1305 74.1722 5.93236C71.9714 6.83446 70.771 8.43819 70.3709 10.7436C69.8707 13.2494 70.571 15.9557 70.671 18.5617C70.771 21.5687 70.771 24.4755 70.771 27.4825C70.771 27.9837 74.0721 27.4825 74.0721 26.5804C74.0721 24.275 74.0721 21.8694 74.0721 19.5641C74.0721 18.8624 74.0721 18.1608 73.9721 17.4592C75.1725 16.958 77.0731 17.4592 78.2735 17.5594C79.1738 17.6596 80.0741 17.4592 80.9744 17.3589C80.9744 19.2634 81.0745 21.268 81.1745 23.2727C81.1745 24.275 81.5746 26.2797 80.8744 27.0816C80.4743 27.4825 82.0748 27.3823 82.1748 27.3823C82.8751 27.282 83.6753 27.0816 84.0755 26.4802C84.8757 25.5781 84.4756 23.2727 84.3756 22.1701C84.2756 20.5664 84.2756 18.9627 84.2756 17.3589C85.0758 16.958 86.1762 16.3566 85.9761 15.655ZM79.3739 15.4545C77.4733 15.4545 75.5726 15.1538 73.672 15.4545C73.572 14.352 73.4719 13.3496 73.3719 12.2471C73.2719 10.2424 73.4719 7.53609 75.2725 6.33329C75.7727 6.03259 76.673 6.03259 77.2732 5.93236C78.0735 5.83213 78.8737 5.63166 79.674 6.13283C80.6743 6.83446 80.4743 9.24006 80.4743 10.2424C80.4743 11.9464 80.6743 13.6503 80.7744 15.3543C80.2742 15.4545 79.774 15.4545 79.3739 15.4545Z" fill="black"/>
<path d="M19.1537 4.12816C19.1537 4.32863 19.1537 4.5291 19.2538 4.62933V4.72956C19.2538 4.8298 19.2538 4.93003 19.2538 5.03026C19.3538 5.23073 19.4538 5.33096 19.6539 5.4312C19.954 5.63166 20.3541 5.63166 20.7543 5.63166C21.1544 5.63166 21.6546 5.4312 21.9547 5.23073C22.0547 5.1305 22.0547 5.1305 22.1548 5.03026C22.5549 4.72956 22.955 4.32863 22.755 3.9277C22.3548 3.0256 22.3548 2.02327 22.4549 1.02093C22.4549 0.219069 21.6546 -0.0816308 20.9544 0.0186024C20.3541 0.118836 19.1537 0.519768 19.1537 1.32163C19.1537 2.1235 19.0537 3.0256 19.2538 3.82746C19.1537 3.9277 19.1537 4.02793 19.1537 4.12816Z" fill="black"/>
<path d="M80.6736 33.3963C79.0731 32.7949 77.3725 32.7949 75.772 32.5944C74.1714 32.3939 72.5709 32.1935 70.8703 31.993C69.2698 32.0932 67.5692 31.993 65.8686 32.0932L60.967 32.3939C54.4648 32.6946 47.9626 32.6946 41.4605 32.4942C34.9583 32.3939 28.4561 31.993 21.8539 31.993C18.5528 31.993 15.2517 32.0932 11.9506 32.2937C10.35 32.5944 8.74951 32.7949 7.04894 33.1958C5.4484 33.5967 3.9479 34.0979 2.24733 34.1981C3.84787 34.5991 5.54844 34.4988 7.24901 34.4988C8.84954 34.4988 10.4501 34.5991 12.1506 34.6993C15.3517 34.4988 18.6528 34.4988 21.8539 34.3986C28.3561 34.3986 34.8583 34.6993 41.4605 34.8998C47.9626 35 54.5649 35.1002 61.1671 34.7995L66.0687 34.4988C67.6692 34.3986 69.2698 34.3986 70.8703 34.3986C72.4709 34.2984 74.1714 34.0979 75.772 33.8974C77.4725 33.697 78.973 33.296 80.6736 33.3963H80.7736V33.296C80.7736 33.0956 80.7736 32.9953 80.7736 32.7949C80.7736 33.1958 80.7736 33.296 80.6736 33.3963Z" fill="black"/>
</svg>

<svg width="86" height="35" fill="none" xmlns="http://www.w3.org/2000/svg"><path d="M4.55 26.38c0-3.5-.3-6.92-.4-10.42v-1c0 .1.1.2.1.4.5 1.4 1.1 2.7 1.8 3.9.7 1.2 1.1 2.6 1.5 3.91-.2.2-.3.4-.2.6 0 .2.1.2.2.3.5.5 1.5.2 2.1 0 .2-.1.5-.2.7-.4.3-.2.7-.6.6-1 0-.1 0-.2-.1-.2.4-1.1.6-2.2.8-3.3.2-1.21.7-2.31 1.1-3.52 0 .5.1 1 .1 1.6.2 2.11 0 4.32 0 6.42 0 .7 0 1.4.2 2.1.1.3.3 1.51.2 1.61-.5.5-.4 1.1.3 1.2.8.2 1.8-.1 2.3-.6 1-.9.5-2.4.3-3.6-.4-2 .1-4.21 0-6.22-.1-2.3-.4-4.51-.4-6.81 0-1.8.3-3.71-.3-5.52 0-.2.1-.4.1-.6.2-.9-2.8-.4-3.2.4-.3.2-.4.5-.3.8 0 .1.1.1.1.2a71.3 71.3 0 01-3.3 10.93c-.5-.9-1-1.9-1.4-2.8-1.2-2.91-2.2-5.82-3.6-8.63.2-1.3-2.7-1.2-3.3 0-.7 1.4-.6 2.91-.4 4.41.3 1.7.3 3.41.3 5.12 0 3.3.3 6.71.4 10.02-.3.3-.4.7-.1 1.2.1.2.3.3.5.5 1.2.7 3.3.2 3.3-1zM22.75 7.94c-.1-.6-3.4.1-3.3.9.3 1.8.2 3.6.1 5.41 0 1.7.4 3.3.6 5.01.2 1.7-.1 3.51.1 5.22.1.8.6 2.3.1 3-.4.4 1.2.3 1.3.3.6-.1 1.5-.3 1.9-.9.6-.7.2-2 0-2.8-.3-1.7-.1-3.51-.2-5.32-.1-1.7-.6-3.3-.7-4.9.3-2.01.4-3.92.1-5.92zM25.96 14.65c.9 2.5 4.6 1.3 6.6 1.5 3.2.2 2.3 4.62 2.3 6.62 0 1.1 1 2.9.2 3.81-.5.6-1.7.6-2.4.6-.7.1-1.9.3-2.3-.4-.8-1.2.1-3.2-.1-4.61-.1-.8-3.4-.1-3.3.9.3 2.2-1.2 5.21 2 5.62 2.1.2 4.4-.1 6.3-.8 1-.3 1.9-.8 2.7-1.51.9-.8.6-2 .4-3-.6-2.51.6-5.32-1-7.52-1.7-2.31-5-.7-7.2-1.3-1.2-.2-1.2-1.81-1.2-2.81 0-1.2-.1-2.3-.2-3.51-.1-.9 0-1.8.6-2.4.1-.1.7-.3.7-.3.3-.1.6-.1.9-.1 1.3-.1 3.9.2 3.4 2.1-.2.9 3 .4 3.3-.5 1-3.91-6.1-3.11-8.2-2.61-1.9.5-3.9 1.6-4 3.7-.1 1.01.2 2.01.3 3.01 0 1.2-.3 2.41.2 3.51zM40.36 16.56c-.1 1.8-.2 3.6-.2 5.41 0 .9.1 1.8.3 2.8.1.8.4 2.01.2 2.81-.2.6 3 .2 3.3-.6.5-1.5-.2-3.4-.3-4.91-.1-1.5 0-2.9.1-4.41 1.7-.1 3.4-.2 5.1 0l.3 3.5c.1 1.01.2 1.91.2 2.91 0 .9.1 2.11-.2 2.91-.7 1.7 2.7 1.6 3.1.3.6-1.6.4-3.5.3-5.21-.3-2.2-.6-4.21-.6-6.31-.1-3.21-.6-6.32-.6-9.53 0-1.7-3.3-1.1-3.3.3 0 3.01.4 6.02.6 9.13v.2c-1.6 0-3.3.1-4.9.2.2-3.91-.5-7.82-.4-11.73 0-.5-3.3-.1-3.3.9-.2 3.81.4 7.52.3 11.33zM54.47 21.87c-.3.3-.2.4 0 .5 0 1.5 0 2.9-.2 4.41-.4.6.4 1 .9 1h.1c.6 0 2.2-.3 2.3-1.1.2-1.8.2-3.5.2-5.31 1.3-1.4 2.4-3.1 3.4-4.71.6 1.2 1.2 2.5 1.7 3.9.7 2.31 1.9 4.42 2.6 6.82.5 1.5 3.8.6 3.3-.9-.7-2.3-1.9-4.51-2.6-6.82-.8-2.3-2-4.4-3-6.61.8-1.6 1.7-3.3 2.5-5.01.7-1.5 1.2-3.21 2.6-4.31.5-.4.5-.8-.2-.8-.7-.1-1.7.2-2.3.6-1.3 1-2 2.2-2.7 3.6-.8 1.7-1.6 3.41-2.5 5.12-.1.1-.1.2-.2.4-.4.3-.7.6-.5 1.1-.7 1.3-1.3 2.6-2.1 3.91-.3-4.71-.8-9.32-1-14.03 0-1.1-3.3-.4-3.3.9.2 5.71 1 11.53 1 17.34zM85.98 15.65c-.2-.7-1.2-.7-1.9-.6v-.8c-.1-2.2-.1-4.5-.3-6.81-.2-2.1-1.3-2.81-3.3-2.71-2 .1-4.4.4-6.3 1.2-2.2.9-3.4 2.5-3.8 4.81-.5 2.5.2 5.22.3 7.82.1 3 .1 5.92.1 8.92 0 .5 3.3 0 3.3-.9v-7.02c0-.7 0-1.4-.1-2.1 1.2-.5 3.1 0 4.3.1.9.1 1.8-.1 2.7-.2 0 1.9.1 3.9.2 5.91 0 1 .4 3.01-.3 3.81-.4.4 1.2.3 1.3.3.7-.1 1.5-.3 1.9-.9.8-.9.4-3.2.3-4.31-.1-1.6-.1-3.2-.1-4.81.8-.4 1.9-1 1.7-1.7zm-6.6-.2c-1.9 0-3.8-.3-5.7 0l-.3-3.2c-.1-2 .1-4.71 1.9-5.92.5-.3 1.4-.3 2-.4.8-.1 1.6-.3 2.4.2 1 .7.8 3.11.8 4.11 0 1.7.2 3.41.3 5.11-.5.1-1 .1-1.4.1zM19.15 4.13c0 .2 0 .4.1.5v.4c.1.2.2.3.4.4.3.2.7.2 1.1.2.4 0 .9-.2 1.2-.4l.2-.2c.4-.3.8-.7.6-1.1-.4-.9-.4-1.9-.3-2.9 0-.81-.8-1.11-1.5-1.01-.6.1-1.8.5-1.8 1.3s-.1 1.7.1 2.5c-.1.1-.1.2-.1.3zM80.67 33.4c-1.6-.6-3.3-.6-4.9-.8l-4.9-.6c-1.6.1-3.3 0-5 .1l-4.9.3c-6.5.3-13 .3-19.5.1-6.51-.1-13.01-.5-19.62-.5-3.3 0-6.6.1-9.9.3-1.6.3-3.2.5-4.9.9-1.6.4-3.1.9-4.8 1 1.6.4 3.3.3 5 .3 1.6 0 3.2.1 4.9.2 3.2-.2 6.5-.2 9.7-.3 6.5 0 13 .3 19.61.5 6.5.1 13.1.2 19.7-.1l4.9-.3c1.6-.1 3.21-.1 4.81-.1 1.6-.1 3.3-.3 4.9-.5 1.7-.2 3.2-.6 4.9-.5h.1v-.1-.5c0 .4 0 .5-.1.6z" fill="#000"/></svg>
